X:1
T:[ID 1-118]
T:[ID 1-118]
T:Bezeichnung standardisiert: Menuett Menuet
T:Urheber unbekannt Datum in der hier transkribierten schriftlichen Quelle: vermutlich vor 1767
C:Urheber unbekannt
C:Datum in der hier transkribierten schriftlichen Quelle: vermutlich vor 1767
L:1/8
M:none
K:D
V:1 treble 
V:1
 D2 F2 A2 | d4 cB | A4 G2 | FC D4 | A,G G4 | FAdf e2 | A,G G4 | FAdfec | dBAGFE | D6 :: A,2 C2 E2 | %11
 A4 cd | e2 dc f2 | A2 G2 F2 | Ed Td4 | ceac' b2 | Ed Td4 | ceac'bg | a2 c2 dB | A6 | A4 A/B/_c | %21
 B4 B/=c/d | c2 Td4 |{cd} ec A4 | A,G G4 | FAdf e2 | A,G TG4 | FAdfec | dBAGFE | D6 :| %30

